X:1
T:Sweet Prayer
T:Sweet Prayer
T:Rigdon McCoy McIntosh, 1883
T:Ann Lutton Chadwick, 1840, alt.
T:Public Domain Courtesy of the Cyber Hymnal™
T:Public Domain Courtesy of the Cyber Hymnal™
C:Rigdon McCoy McIntosh, 1883
Z:Public Domain
Z:Courtesy of the Cyber Hymnal™
%%score ( 1 2 ) ( 3 4 )
L:1/8
Q:1/4=90
M:2/4
K:E
V:1 treble 
V:2 treble 
V:3 bass 
V:4 bass 
V:1
 [EG] | [EG]2 [EG][GB] | [FA]2 [DF][DF] | [DF]2 E[DF] | [EG]2 z ([EG]/[EG]/) | [EG]2 [EG][GB] | %6
w: 1.~When|torn is the|bos- om by|sor- row or|care, Be~it *|ev- er so|
w: 2.~When|far from the|friends we hold|dear- est to|part, What *|fond re- col-|
w: 3.~When|plea- sure would|woo us from|pi- e- ty’s|arms, The *|si- ren sings|
w: 4.~While|strang- ers to|prayer we are|strang- ers to|bliss, Heaven *|pours its full|
 [FA]2 [CF][CF] | ([DF][FA]) [EG][DF] | E2 z [DF] | [DF]2 [DF][EG] | [FA]2 [EG][FA] | %11
w: sim- ple, there’s|no- * thing like|prayer; It|eas- es, soothes,|soft- ens, sub-|
w: lect- ions still|cling * to my|heart, Past|scenes and past|con- verse, en-|
w: sweet- ly, or|si- * lent- ly|charms, We|lis- ten, love,|loi- ter, are|
w: streams through no|me- * dium but|this; And|till we the|ser- a- phim’s|
 [GB]2 [Ac][Fd] | [Ge]3 [GB] | ([Ac]>[Bd]) [ce][Ac] | ([GB]>[EG]) E[EF] | ([EG][FA]) [EG][DF] | %16
w: dues, yet sus-|tains, Gives|vi- * gor to|hope, * and puts|pas- * sion in|
w: joy- ments are|there, How|hurt- * ful- ly|pleas- * ing till|hal- * lowed by|
w: caught in the|snare, On|look- * ing to|Je- * sus we|con- * quer by|
w: ec- sta- sy|share, Our|chal- * ice of|joy * must be|guard- * ed by|
 E4 ||"^Refrain" [GB]4 | ([Ac] [FA]2) z | ([DF]/F/) z ([EG]/[CE]/) z | E3 [GB]/[GB]/ | %21
w: chains.|||||
w: prayer.|||||
w: prayer.|Prayer,|prayer, *|sweet, * sweet *|prayer, Be it|
w: prayer.|||||
 ([Ac]>[Bd]) [ce][Ac] | ([GB]>[EG]) E[EF] | ([EG][FA]) [EG][DF] | !fermata!E3 |] %25
w: ||||
w: ||||
w: ev- * er so|sim- * ple, There’s|no- * thing like|prayer.|
w: ||||
V:2
 x | x4 | x4 | x2 E x | x4 | x4 | x4 | x4 | E2 x2 | x4 | x4 | x4 | x4 | x4 | x2 E x | x4 | E4 || %17
 x4 | x4 | x4 | E3 x | x4 | x2 E x | x4 | E3 |] %25
V:3
 [E,B,] | [E,B,]2 [E,B,][E,B,] | [B,,B,]2 [B,,B,][B,,B,] | [B,,B,]2 [B,,B,][B,,B,] | %4
 [E,B,]2 z ([E,B,]/[E,B,]/) | [E,B,]2 [E,B,][E,B,] | [A,,C]2 [A,,C][A,,C] | %7
 [B,,B,]2 [B,,B,][B,,A,] | [E,G,]2 z [B,,B,] | [B,,B,]2 [B,,B,][B,,B,] | [B,,B,]2 [B,,B,][B,,B,] | %11
 (B,E) [B,,E][B,,B,] | [E,B,]3 [E,E] | [A,E]2 [A,E][A,E] | ([E,E]>[E,B,]) [G,B,][A,C] | %15
 B,2 [B,,B,][B,,A,] | [E,G,]4 || z4 | z4 | z4 | z3 [E,E]/[E,E]/ | [A,E]2 [A,E][A,E] | %22
 ([E,E]>[E,B,]) [G,B,][A,C] | B,2 [B,,B,][B,,A,] | !fermata![E,G,]3 |] %25
V:4
 x | x4 | x4 | x4 | x4 | x4 | x4 | x4 | x4 | x4 | x4 | B,,2 x2 | x4 | x4 | x4 | B,2 x2 | x4 || x4 | %18
 x4 | x4 | x4 | x4 | x4 | B,2 x2 | x3 |] %25

